!!!COM: Palestrina, Giovanni Perluigi da
!!!OPR: Missa In duplicibus minoribus (II)
!!!OMD: Credo
!!!OTL: Et resurrexit
**kern	**kern	**kern	**kern
*Itenor	*Itenor	*Icalto	*Icant
!Tenor 2	!Tenor 1	!Altus	!Cantus
*clefGv2	*clefGv2	*clefG2	*clefG2
*k[]	*k[]	*k[]	*k[]
*E:phr	*E:phr	*E:phr	*E:phr
*M4/2	*M4/2	*M4/2	*M4/2
=75	=75	=75	=75
0r	0r	1A	1a
.	.	2B	2g
.	.	2c	2a
=76	=76	=76	=76
1r	1r	1d	1f
2r	1A	1c	[1e
2A	.	.	.
=77	=77	=77	=77
2B	2G	1r	1e]
2c	2A	.	.
1d	1F	2r	1r
.	.	2A	.
=78	=78	=78	=78
1e	2E	2B	1r
.	1A	2.c	.
1r	.	.	1e
.	.	4d	.
.	[2c	[2e	.
=79	=79	=79	=79
0r	2c]	2e]	1.g
.	4B	4d	.
.	4A	4c	.
.	2G	4B	.
.	.	4c	.
.	2D	2d	2f
=80	=80	=80	=80
0r	2E	2c	2g
.	2F	4B	1a
.	.	4A	.
.	2D	1B	.
.	2E	.	2g#
=81	=81	=81	=81
2r	1F	1A	2a
1A	.	.	1cc
.	1E	2r	.
2G	.	[2e	2b
=82	=82	=82	=82
2A	0r	2e]	2cc
2B	.	2d	4dd
.	.	.	4cc
[1G	.	2e	4b
.	.	.	4a
.	.	2d	[2b
=83	=83	=83	=83
1G]	0r	4g	4b]
.	.	4f	4a
.	.	4e	4g
.	.	4d	4f
[1A	.	2c	2e
.	.	[2d	2f
=84	=84	=84	=84
1A]	2r	2d]	0e
.	1A	4c	.
.	.	4B	.
2r	.	2c	.
2B	2G	[2e	.
=85	=85	=85	=85
2c	2A	2e]	0r
2d	2B	2d	.
2B	2G	2e	.
[2c	[2A	[2f	.
=86	=86	=86	=86
4c]	4A]	4f]	1r
4B	4G	4e	.
2G	2E	1e	.
1A	1F	.	2r
.	.	2d	[2a
=87	=87	=87	=87
2B	2E	[0e	2a]
2B	2E	.	2g
2c	2A	.	2a
4B	4G#	.	2b
4A	4F#	.	.
=88	=88	=88	=88
2B	0G#	0e]	2g#
2c	.	.	1a
1B	.	.	.
.	.	.	2g#
=89	=89	=89	=89
[0c#	[0A	[0e	[0a
=90	=90	=90	=90
0c#]	0A]	0e]	0a]
*-	*-	*-	*-
!!!CDT: 1525/^1526/-1594/2/2
!!!OCY: Italia
!!!AGN: Mass (Paraphrase)
!!!AST: renaissance, vocal
!!!ASW: Gregorian Mass
!!!PWK: Masses, Book Mantuan I
!!!RNB: Cadence finals: A
!!!YOR: Le Opere Complete, v. 18, p. 1
!!!YOO: Rome, Italy: Fratelli Scalera
!!!END: 1992//
!!!EED: John Miller
!!!YEC: Copyright 2000, John Miller
!!!YEN: United States of America
!!!YEM: Rights to all derivative electronic formats reserved.
!!!YEM: Refer to licensing agreement for further details.
!!!YEM: This file must be accompanied by the licensing agreement.
!!!YEM: A copy of the licensing agreement may be found at http://www.music-cog.ohio-state.edu/HumdrumDatabases/Palestrina/license.txt
!!!EMD: converted to Humdrum by Bret Aarden
